static/pancake/img/service-refrigerator.svg

<svg xmlns="http://www.w3.org/2000/svg" width="60" height="60" viewBox="0 0 60 60"><g data-name="Слой 1"><path fill="none" d="M0 0h60v60H0z"/><path d="M21.66 53.11V54a1.46 1.46 0 0 1-1.46 1.5 1.46 1.46 0 0 1-1.46-1.5v-.93M40.16 53.11V54a1.46 1.46 0 0 1-1.46 1.5 1.46 1.46 0 0 1-1.46-1.5v-.93" fill="#dbd8ce" stroke="#692f17" stroke-linecap="round" stroke-miterlimit="10" stroke-width=".8"/><rect x="15.99" y="4.5" width="25.96" height="48.45" rx="2.66" ry="2.66" fill="#dbd8ce" stroke="#692f17" stroke-linecap="round" stroke-miterlimit="10"/><path d="M19.49 6.14h19.74v32.11H17.9V7.72a1.59 1.59 0 0 1 1.59-1.58z" fill="#f7f2ec"/><path d="M17.89 38.25V7.16a.75.75 0 0 1 .75-.75h20.64" fill="none" stroke="#692f17" stroke-linecap="round" stroke-miterlimit="10" stroke-width=".8"/><path fill="none" stroke="#692f17" stroke-linecap="round" stroke-miterlimit="10" d="M15.99 38.25h25.95M39.23 38.25V4.5"/><path fill="none" stroke="#692f17" stroke-linecap="round" stroke-miterlimit="10" stroke-width=".8" d="M17.96 16.91H38.7M17.96 27.77H38.7M42.51 27.41a1.34 1.34 0 0 1 1.34 1.34v5.49a1.34 1.34 0 0 1-1.34 1.34"/><path d="M16.57 40.42a1.34 1.34 0 0 1 1.34 1.34v3.47a1.34 1.34 0 0 1-1.34 1.34" fill="none" stroke="#692f17" stroke-linecap="round" stroke-miterlimit="10" stroke-width=".88"/></g></svg>

<svg xmlns="http://www.w3.org/2000/svg" width="60" height="60" viewBox="0 0 60 60"><title>холодильник_1</title><g id="Слой_2" data-name="Слой 2"><g id="Слой_1-2" data-name="Слой 1"><rect width="60" height="60" fill="none"/><path d="M21.66,53.11V54A1.46,1.46,0,0,1,20.2,55.5h0A1.46,1.46,0,0,1,18.74,54v-.93" fill="#dbd8ce" stroke="#692f17" stroke-linecap="round" stroke-miterlimit="10" stroke-width="0.8"/><path d="M40.16,53.11V54A1.46,1.46,0,0,1,38.7,55.5h0A1.46,1.46,0,0,1,37.24,54v-.93" fill="#dbd8ce" stroke="#692f17" stroke-linecap="round" stroke-miterlimit="10" stroke-width="0.8"/><rect x="15.99" y="4.5" width="25.96" height="48.45" rx="2.66" ry="2.66" fill="#dbd8ce" stroke="#692f17" stroke-linecap="round" stroke-miterlimit="10"/><path d="M19.49,6.14H39.23a0,0,0,0,1,0,0V38.25a0,0,0,0,1,0,0H17.9a0,0,0,0,1,0,0V7.72A1.59,1.59,0,0,1,19.49,6.14Z" fill="#f7f2ec"/><path d="M17.89,38.25V7.16a.75.75,0,0,1,.75-.75H39.28" fill="none" stroke="#692f17" stroke-linecap="round" stroke-miterlimit="10" stroke-width="0.8"/><line x1="15.99" y1="38.25" x2="41.94" y2="38.25" fill="none" stroke="#692f17" stroke-linecap="round" stroke-miterlimit="10"/><line x1="39.23" y1="38.25" x2="39.23" y2="4.5" fill="none" stroke="#692f17" stroke-linecap="round" stroke-miterlimit="10"/><line x1="17.96" y1="16.91" x2="38.7" y2="16.91" fill="none" stroke="#692f17" stroke-linecap="round" stroke-miterlimit="10" stroke-width="0.8"/><line x1="17.96" y1="27.77" x2="38.7" y2="27.77" fill="none" stroke="#692f17" stroke-linecap="round" stroke-miterlimit="10" stroke-width="0.8"/><path d="M42.51,27.41h0a1.34,1.34,0,0,1,1.34,1.34v5.49a1.34,1.34,0,0,1-1.34,1.34h0" fill="none" stroke="#692f17" stroke-linecap="round" stroke-miterlimit="10" stroke-width="0.8"/><path d="M16.57,40.42h0a1.34,1.34,0,0,1,1.34,1.34v3.47a1.34,1.34,0,0,1-1.34,1.34h0" fill="none" stroke="#692f17" stroke-linecap="round" stroke-miterlimit="10" stroke-width="0.88"/></g></g></svg>
